X: 5
T:Miss Rowan Davies
M:3/4
L:1/8
C:Phil Cunningham
R:Air/Waltz
K:G
|:BA||G4 D2|D3 E F2|G6-|G4 gf|
e3 f ge|d3 G BG|A4 GA|B3 G AF|!
G3 A D2|D3 E F2|G6-|G4 GF|
E2 c3 A|F4 G2|G6-|G4:|!
|:GF||E3 ^D E2|e3 f ge|d4-de|d3 B AF|
G3 A B2|e2 G3 A|B6-|B2 c2 d2|!
e3 E GE|F3 G AF|G6-|G4-GF|
G3 A BG|E2 c3 A|F4 G2|G6-|G4:|]!
